img/design-circle.svg

<svg width="415" height="180" viewBox="0 0 415 180" fill="none" xmlns="http://www.w3.org/2000/svg">
<path d="M90.6096 1C140.617 1 181.219 41.0996 181.219 90.4881C181.219 139.877 140.617 179.976 90.6096 179.976C40.6022 179.976 0 139.877 0 90.4881C0 41.0996 40.6022 1 90.6096 1Z" fill="#FE6571"/>
<path d="M181.61 0C231.617 0 272.219 40.0996 272.219 89.4881C272.219 138.877 231.617 178.976 181.61 178.976C131.602 178.976 91 138.877 91 89.4881C91 40.0996 131.602 0 181.61 0Z" fill="#082C4E"/>
<path d="M263.61 1C313.617 1 354.219 41.0996 354.219 90.4881C354.219 139.877 313.617 179.976 263.61 179.976C213.602 179.976 173 139.877 173 90.4881C173 41.0996 213.602 1 263.61 1Z" fill="#FFCC00"/>
<path d="M324.5 1C374.447 1 415 41.1049 415 90.5C415 139.895 374.447 180 324.5 180C274.553 180 234 139.895 234 90.5C234 41.1049 274.553 1 324.5 1Z" fill="#F2EAE2"/>
</svg>

<svg width="415" height="180" fill="none" xmlns="http://www.w3.org/2000/svg"><path d="M90.61 1c50.007 0 90.609 40.1 90.609 89.488 0 49.389-40.602 89.488-90.61 89.488C40.603 179.976 0 139.877 0 90.488 0 41.1 40.602 1 90.61 1Z" fill="#FE6571"/><path d="M181.61 0c50.007 0 90.609 40.1 90.609 89.488 0 49.389-40.602 89.488-90.609 89.488-50.008 0-90.61-40.099-90.61-89.488C91 40.1 131.602 0 181.61 0Z" fill="#082C4E"/><path d="M263.61 1c50.007 0 90.609 40.1 90.609 89.488 0 49.389-40.602 89.488-90.609 89.488-50.008 0-90.61-40.099-90.61-89.488C173 41.1 213.602 1 263.61 1Z" fill="#FC0"/><path d="M324.5 1C374.447 1 415 41.105 415 90.5S374.447 180 324.5 180 234 139.895 234 90.5 274.553 1 324.5 1Z" fill="#F2EAE2"/></svg>
